public/img/menu-cc.svg

<svg width="29" height="23" viewBox="0 0 29 23" xmlns="http://www.w3.org/2000/svg"><title>91EDAD7D-25F3-4E3A-B702-51C05E5D8753</title><path d="M26.1 4.1H2c-1.1 0-2-.9-2-2s.9-2 2-2h24.1c1.1 0 2 .9 2 2s-.9 2-2 2zm0 18.1H2c-1.1 0-2-.9-2-2s.9-2 2-2h24.1c1.1 0 2 .9 2 2s-.9 2-2 2zm0-9h-18c-1.1 0-2-.9-2-2s.9-2 2-2h18c1.1 0 2 .9 2 2s-.9 2-2 2z" fill="#FB385F" fill-rule="evenodd"/></svg>

<?xml version="1.0" encoding="UTF-8" standalone="no"?>
<svg width="29px" height="23px" viewBox="0 0 29 23" version="1.1" xmlns="http://www.w3.org/2000/svg" xmlns:xlink="http://www.w3.org/1999/xlink">
    <!-- Generator: sketchtool 3.8.3 (29802) - http://www.bohemiancoding.com/sketch -->
    <title>91EDAD7D-25F3-4E3A-B702-51C05E5D8753</title>
    <desc>Created with sketchtool.</desc>
    <defs></defs>
    <g id="Page-1" stroke="none" stroke-width="1" fill="none" fill-rule="evenodd">
        <g id="Home-Copy" transform="translate(-1366.000000, -48.000000)" fill="#FB385F">
            <g id="menu_cc" transform="translate(1366.000000, 48.000000)">
                <g id="Layer_1">
                    <g id="Group">
                        <path d="M26.1,4.1 L2,4.1 C0.9,4.1 0,3.2 0,2.1 L0,2.1 C0,1 0.9,0.1 2,0.1 L26.1,0.1 C27.2,0.1 28.1,1 28.1,2.1 L28.1,2.1 C28.1,3.2 27.2,4.1 26.1,4.1 L26.1,4.1 Z" id="Shape"></path>
                        <path d="M26.1,22.2 L2,22.2 C0.9,22.2 0,21.3 0,20.2 L0,20.2 C0,19.1 0.9,18.2 2,18.2 L26.1,18.2 C27.2,18.2 28.1,19.1 28.1,20.2 L28.1,20.2 C28.1,21.3 27.2,22.2 26.1,22.2 L26.1,22.2 Z" id="Shape"></path>
                        <path d="M26.1,13.2 L8.1,13.2 C7,13.2 6.1,12.3 6.1,11.2 L6.1,11.2 C6.1,10.1 7,9.2 8.1,9.2 L26.1,9.2 C27.2,9.2 28.1,10.1 28.1,11.2 L28.1,11.2 C28.1,12.3 27.2,13.2 26.1,13.2 L26.1,13.2 Z" id="Shape"></path>
                    </g>
                </g>
            </g>
        </g>
    </g>
</svg>
